svgs/thin/pipe-section.svg

<svg xmlns="http://www.w3.org/2000/svg" viewBox="0 0 640 512"><!--! Font Awesome Pro 6.6.0 by @fontawesome - https://fontawesome.com License - https://fontawesome.com/license (Commercial License) Copyright 2024 Fonticons, Inc. --><path d="M48 384c0 8.8-7.2 16-16 16s-16-7.2-16-16l0-256c0-8.8 7.2-16 16-16s16 7.2 16 16l0 256zM32 96C14.3 96 0 110.3 0 128L0 384c0 17.7 14.3 32 32 32s32-14.3 32-32l512 0c0 17.7 14.3 32 32 32s32-14.3 32-32l0-256c0-17.7-14.3-32-32-32s-32 14.3-32 32L64 128c0-17.7-14.3-32-32-32zm544 48l0 224L64 368l0-224 512 0zm48-16l0 256c0 8.8-7.2 16-16 16s-16-7.2-16-16l0-256c0-8.8 7.2-16 16-16s16 7.2 16 16z"/></svg>

<svg xmlns="http://www.w3.org/2000/svg" viewBox="0 0 640 512"><!--! Font Awesome Pro 6.5.2 by @fontawesome - https://fontawesome.com License - https://fontawesome.com/license (Commercial License) Copyright 2024 Fonticons, Inc. --><path d="M48 384c0 8.8-7.2 16-16 16s-16-7.2-16-16V128c0-8.8 7.2-16 16-16s16 7.2 16 16V384zM32 96C14.3 96 0 110.3 0 128V384c0 17.7 14.3 32 32 32s32-14.3 32-32H576c0 17.7 14.3 32 32 32s32-14.3 32-32V128c0-17.7-14.3-32-32-32s-32 14.3-32 32L64 128c0-17.7-14.3-32-32-32zm544 48V368H64V144H576zm48-16V384c0 8.8-7.2 16-16 16s-16-7.2-16-16V128c0-8.8 7.2-16 16-16s16 7.2 16 16z"/></svg>
